src/assets/images/waves-bottom.svg

<svg width="656" height="98" viewBox="0 0 656 98" fill="none" xmlns="http://www.w3.org/2000/svg">
<path fill-rule="evenodd" clip-rule="evenodd" d="M1.87256 82.9587C8.64746 74.1528 15.3406 69.856 21.9564 69.856C28.5721 69.856 35.2653 74.1487 42.0402 82.9587C48.8682 91.834 55.7776 96.3798 62.7689 96.3798C69.7601 96.3798 76.6696 91.834 83.4976 82.9587C90.2725 74.1528 96.9656 69.856 103.581 69.856C110.197 69.856 116.89 74.1487 123.665 82.9587C130.493 91.834 137.403 96.3798 144.394 96.3798C151.385 96.3798 158.295 91.834 165.123 82.9587C171.897 74.1528 178.591 69.8559 185.206 69.8559C191.822 69.8559 198.515 74.1487 205.29 82.9587C212.118 91.834 219.028 96.3798 226.019 96.3798C233.01 96.3798 239.92 91.834 246.748 82.9587C253.522 74.1487 260.216 69.8559 266.831 69.8559C273.447 69.8559 280.14 74.1487 286.911 82.9587C293.743 91.834 300.653 96.3798 307.644 96.3798C314.635 96.3798 321.52 91.834 328.373 82.9587C335.147 74.1487 341.841 69.8559 348.456 69.8559C355.072 69.8559 361.765 74.1487 368.536 82.9587C375.368 91.834 382.278 96.3798 389.269 96.3798C396.26 96.3798 403.145 91.834 409.998 82.9587C416.772 74.1487 423.466 69.8559 430.081 69.8559C436.697 69.8559 443.39 74.1487 450.161 82.9587C456.993 91.834 463.903 96.3798 470.894 96.3798C477.885 96.3798 484.791 91.834 491.623 82.9587C498.397 74.1487 505.091 69.8559 511.706 69.8559C518.322 69.8559 525.015 74.1487 531.786 82.9587C538.618 91.834 545.528 96.3798 552.519 96.3798C559.51 96.3798 566.395 91.834 573.248 82.9587C580.022 74.1487 586.716 69.8559 593.331 69.8559C599.947 69.8559 606.64 74.1487 613.411 82.9587C620.243 91.834 627.153 96.3798 634.144 96.3798C641.135 96.3798 648.041 91.834 654.873 82.9587L654.873 1L1.87255 1.00006L1.87256 82.9587Z" fill="white"/>
<path d="M605.089 83.3299L604.693 83.6347L605.089 83.3299ZM564.283 83.3299L563.887 83.025L564.283 83.3299ZM482.671 83.3299L482.275 83.025L482.671 83.3299ZM401.06 83.3299L400.663 83.025L401.06 83.3299ZM1.87256 82.9587L1.37256 82.9587L1.37256 84.4286L2.26886 83.2636L1.87256 82.9587ZM42.0402 82.9587L41.6439 83.2635L41.6439 83.2636L42.0402 82.9587ZM83.4976 82.9587L83.1013 82.6538L83.1013 82.6539L83.4976 82.9587ZM123.665 82.9587L123.269 83.2635L123.269 83.2636L123.665 82.9587ZM165.123 82.9587L164.726 82.6538L164.726 82.6539L165.123 82.9587ZM205.29 82.9587L204.894 83.2635L204.894 83.2636L205.29 82.9587ZM246.748 82.9587L247.144 83.2636L247.144 83.2635L246.748 82.9587ZM286.911 82.9587L286.515 83.2634L286.515 83.2637L286.911 82.9587ZM328.373 82.9587L328.768 83.2643L328.769 83.2635L328.373 82.9587ZM368.536 82.9587L368.14 83.2634L368.14 83.2637L368.536 82.9587ZM409.998 82.9587L410.393 83.2643L410.394 83.2635L409.998 82.9587ZM450.161 82.9587L449.765 83.2634L449.765 83.2637L450.161 82.9587ZM491.623 82.9587L492.019 83.2637L492.019 83.2635L491.623 82.9587ZM531.786 82.9587L531.39 83.2634L531.39 83.2637L531.786 82.9587ZM573.248 82.9587L573.643 83.2643L573.644 83.2635L573.248 82.9587ZM613.411 82.9587L613.015 83.2634L613.015 83.2637L613.411 82.9587ZM654.873 82.9587L655.269 83.2637L655.373 83.1288L655.373 82.9587L654.873 82.9587ZM654.873 1L655.373 1L655.373 0.5L654.873 0.5L654.873 1ZM1.87255 1.00006L1.87255 0.500057L1.37255 0.500057L1.37255 1.00006L1.87255 1.00006ZM645.499 83.025C638.732 91.8215 632.061 96.0918 625.492 96.0918C618.924 96.0918 612.252 91.8215 605.486 83.025L604.693 83.6347C611.528 92.5208 618.459 97.0918 625.492 97.0918C632.526 97.0918 639.456 92.5208 646.292 83.6347L645.499 83.025ZM605.486 83.025C598.65 74.1389 591.72 69.5679 584.686 69.5679C577.653 69.5679 570.722 74.1389 563.887 83.025L564.68 83.6347C571.446 74.8382 578.118 70.5679 584.686 70.5679C591.255 70.5679 597.926 74.8382 604.693 83.6347L605.486 83.025ZM563.887 83.025C557.12 91.8215 550.449 96.0918 543.88 96.0918C537.312 96.0918 530.64 91.8215 523.874 83.025L523.081 83.6347C529.916 92.5208 536.847 97.0918 543.88 97.0918C550.914 97.0918 557.844 92.5208 564.68 83.6347L563.887 83.025ZM523.874 83.025C517.038 74.1389 510.108 69.5679 503.074 69.5679C496.041 69.5679 489.111 74.1389 482.275 83.025L483.068 83.6347C489.834 74.8382 496.506 70.5679 503.074 70.5679C509.643 70.5679 516.315 74.8382 523.081 83.6347L523.874 83.025ZM482.275 83.025C475.509 91.8215 468.837 96.0918 462.268 96.0918C455.7 96.0918 449.028 91.8215 442.262 83.025L441.469 83.6347C448.305 92.5208 455.235 97.0918 462.268 97.0918C469.302 97.0918 476.232 92.5208 483.068 83.6347L482.275 83.025ZM442.262 83.025C435.426 74.139 428.496 69.5679 421.462 69.5679C414.429 69.5679 407.499 74.139 400.663 83.025L401.456 83.6347C408.222 74.8382 414.894 70.5679 421.462 70.5679C428.031 70.5679 434.703 74.8382 441.469 83.6347L442.262 83.025ZM400.663 83.025C393.897 91.8215 387.225 96.0918 380.657 96.0918C374.088 96.0918 367.416 91.8215 360.65 83.025L359.857 83.6347C366.693 92.5208 373.623 97.0918 380.657 97.0918C387.69 97.0918 394.62 92.5208 401.456 83.6347L400.663 83.025ZM360.65 83.025C353.814 74.139 346.884 69.568 339.851 69.568C332.817 69.568 325.887 74.139 319.051 83.025L319.844 83.6347C326.61 74.8382 333.282 70.568 339.851 70.568C346.419 70.568 353.091 74.8382 359.857 83.6347L360.65 83.025ZM319.051 83.025C312.285 91.8215 305.613 96.0918 299.045 96.0918C292.476 96.0918 285.805 91.8215 279.038 83.025L278.245 83.6347C285.081 92.5208 292.011 97.0918 299.045 97.0918C306.078 97.0918 313.008 92.5208 319.844 83.6347L319.051 83.025ZM279.038 83.025C272.203 74.139 265.272 69.568 258.239 69.568C251.205 69.568 244.275 74.139 237.439 83.025L238.232 83.6348C244.999 74.8382 251.67 70.568 258.239 70.568C264.807 70.568 271.479 74.8382 278.245 83.6347L279.038 83.025ZM237.439 83.025C230.673 91.8215 224.001 96.0918 217.433 96.0918C210.864 96.0918 204.193 91.8216 197.426 83.025L196.633 83.6348C203.469 92.5208 210.399 97.0918 217.433 97.0918C224.466 97.0918 231.397 92.5208 238.232 83.6348L237.439 83.025ZM197.426 83.025C190.591 74.139 183.66 69.568 176.627 69.568C169.593 69.568 162.663 74.139 155.827 83.025L156.62 83.6348C163.387 74.8383 170.058 70.568 176.627 70.568C183.195 70.568 189.867 74.8382 196.633 83.6348L197.426 83.025ZM155.827 83.025C149.061 91.8216 142.389 96.0918 135.821 96.0918C129.252 96.0918 122.581 91.8216 115.814 83.0251L115.021 83.6348C121.857 92.5208 128.787 97.0918 135.821 97.0918C142.854 97.0918 149.785 92.5208 156.62 83.6348L155.827 83.025ZM115.814 83.0251C108.979 74.139 102.049 69.568 95.0148 69.568C87.9811 69.568 81.051 74.139 74.2156 83.0251L75.0082 83.6348C81.7747 74.8383 88.4465 70.568 95.0148 70.568C101.583 70.568 108.255 74.8383 115.021 83.6348L115.814 83.0251ZM74.2156 83.0251C67.449 91.8216 60.7772 96.0918 54.2089 96.0918C47.6406 96.0918 40.9687 91.8216 34.2022 83.0251L33.4096 83.6348C40.2451 92.5208 47.1752 97.0918 54.2089 97.0918C61.2426 97.0918 68.1727 92.5208 75.0082 83.6348L74.2156 83.0251ZM34.2022 83.0251C27.3668 74.139 20.4366 69.568 13.403 69.568C6.36926 69.568 -0.560915 74.139 -7.39636 83.0251L-6.60376 83.6348C0.162779 74.8383 6.83459 70.568 13.403 70.568C19.9713 70.568 26.6431 74.8383 33.4096 83.6348L34.2022 83.0251ZM2.26886 83.2636C9.00921 74.5026 15.5732 70.356 21.9564 70.356L21.9564 69.356C15.108 69.356 8.28564 73.8031 1.47626 82.6539L2.26886 83.2636ZM21.9564 70.356C28.3395 70.356 34.9036 74.4986 41.6439 83.2635L42.4366 82.6539C35.6271 73.7989 28.8046 69.356 21.9564 69.356L21.9564 70.356ZM41.6439 83.2636C48.5063 92.1836 55.545 96.8798 62.7689 96.8798L62.7689 95.8798C56.0104 95.8798 49.23 91.4844 42.4365 82.6539L41.6439 83.2636ZM62.7689 96.8798C69.9927 96.8798 77.0315 92.1836 83.8939 83.2636L83.1013 82.6539C76.3077 91.4844 69.5273 95.8798 62.7689 95.8798L62.7689 96.8798ZM83.8939 83.2636C90.6342 74.5025 97.1982 70.356 103.581 70.356L103.581 69.356C96.733 69.356 89.9106 73.8031 83.1013 82.6538L83.8939 83.2636ZM103.581 70.356C109.965 70.356 116.529 74.4986 123.269 83.2635L124.062 82.6539C117.252 73.7989 110.43 69.356 103.581 69.356L103.581 70.356ZM123.269 83.2636C130.131 92.1836 137.17 96.8798 144.394 96.8798L144.394 95.8798C137.635 95.8798 130.855 91.4844 124.062 82.6539L123.269 83.2636ZM144.394 96.8798C151.618 96.8798 158.656 92.1836 165.519 83.2636L164.726 82.6539C157.933 91.4844 151.152 95.8798 144.394 95.8798L144.394 96.8798ZM165.519 83.2636C172.259 74.5025 178.823 70.3559 185.206 70.3559L185.206 69.3559C178.358 69.3559 171.536 73.8031 164.726 82.6538L165.519 83.2636ZM185.206 70.3559C191.59 70.3559 198.154 74.4986 204.894 83.2635L205.687 82.6539C198.877 73.7989 192.055 69.3559 185.206 69.3559L185.206 70.3559ZM204.894 83.2636C211.756 92.1836 218.795 96.8798 226.019 96.8798L226.019 95.8798C219.26 95.8798 212.48 91.4844 205.687 82.6538L204.894 83.2636ZM226.019 96.8798C233.243 96.8798 240.282 92.1836 247.144 83.2636L246.351 82.6538C239.558 91.4844 232.777 95.8798 226.019 95.8798L226.019 96.8798ZM247.144 83.2635C253.884 74.4986 260.448 70.3559 266.831 70.3559L266.831 69.3559C259.983 69.3559 253.161 73.7989 246.351 82.6539L247.144 83.2635ZM266.831 70.3559C273.215 70.3559 279.779 74.4985 286.515 83.2634L287.308 82.654C280.502 73.7989 273.68 69.3559 266.831 69.3559L266.831 70.3559ZM286.515 83.2637C293.381 92.1836 300.42 96.8798 307.644 96.8798L307.644 95.8798C300.885 95.8798 294.105 91.4844 287.307 82.6537L286.515 83.2637ZM307.644 96.8798C314.868 96.8798 321.882 92.1831 328.768 83.2643L327.977 82.6532C321.158 91.4849 314.402 95.8798 307.644 95.8798L307.644 96.8798ZM328.769 83.2635C335.509 74.4986 342.073 70.3559 348.456 70.3559L348.456 69.3559C341.608 69.3559 334.786 73.7989 327.976 82.6539L328.769 83.2635ZM348.456 70.3559C354.84 70.3559 361.404 74.4985 368.14 83.2634L368.933 82.654C362.127 73.7989 355.305 69.3559 348.456 69.3559L348.456 70.3559ZM368.14 83.2637C375.006 92.1836 382.045 96.8798 389.269 96.8798L389.269 95.8798C382.51 95.8798 375.73 91.4844 368.932 82.6537L368.14 83.2637ZM389.269 96.8798C396.493 96.8798 403.507 92.1831 410.393 83.2643L409.602 82.6531C402.783 91.4849 396.027 95.8798 389.269 95.8798L389.269 96.8798ZM410.394 83.2635C417.134 74.4986 423.698 70.3559 430.081 70.3559L430.081 69.3559C423.233 69.3559 416.411 73.7989 409.601 82.6539L410.394 83.2635ZM430.081 70.3559C436.465 70.3559 443.029 74.4985 449.765 83.2634L450.558 82.654C443.752 73.7989 436.93 69.3559 430.081 69.3559L430.081 70.3559ZM449.765 83.2637C456.631 92.1836 463.67 96.8798 470.894 96.8798L470.894 95.8798C464.135 95.8798 457.355 91.4844 450.557 82.6537L449.765 83.2637ZM470.894 96.8798C478.118 96.8798 485.152 92.1835 492.019 83.2637L491.226 82.6537C484.429 91.4845 477.652 95.8798 470.894 95.8798L470.894 96.8798ZM492.019 83.2635C498.759 74.4985 505.323 70.3559 511.706 70.3559L511.706 69.3559C504.858 69.3559 498.036 73.7989 491.226 82.6539L492.019 83.2635ZM511.706 70.3559C518.09 70.3559 524.654 74.4985 531.39 83.2634L532.183 82.654C525.377 73.7989 518.555 69.3559 511.706 69.3559L511.706 70.3559ZM531.39 83.2637C538.256 92.1836 545.295 96.8798 552.519 96.8798L552.519 95.8798C545.76 95.8798 538.98 91.4844 532.182 82.6537L531.39 83.2637ZM552.519 96.8798C559.743 96.8798 566.757 92.1831 573.643 83.2643L572.852 82.6531C566.033 91.4849 559.277 95.8798 552.519 95.8798L552.519 96.8798ZM573.644 83.2635C580.384 74.4985 586.948 70.3559 593.331 70.3559L593.331 69.3559C586.483 69.3559 579.661 73.7989 572.851 82.6539L573.644 83.2635ZM593.331 70.3559C599.715 70.3559 606.279 74.4985 613.015 83.2634L613.808 82.654C607.002 73.7989 600.18 69.3559 593.331 69.3559L593.331 70.3559ZM613.015 83.2637C619.881 92.1836 626.92 96.8798 634.144 96.8798L634.144 95.8798C627.385 95.8798 620.605 91.4844 613.807 82.6537L613.015 83.2637ZM634.144 96.8798C641.368 96.8798 648.402 92.1835 655.269 83.2637L654.476 82.6537C647.679 91.4845 640.902 95.8798 634.144 95.8798L634.144 96.8798ZM655.373 82.9587L655.373 1L654.373 1L654.373 82.9587L655.373 82.9587ZM654.873 0.5L1.87255 0.500057L1.87255 1.50006L654.873 1.5L654.873 0.5ZM1.37255 1.00006L1.37256 82.9587L2.37256 82.9587L2.37255 1.00006L1.37255 1.00006Z" fill="white"/>
</svg>

<svg width="656" height="98" fill="none" xmlns="http://www.w3.org/2000/svg"><path fill-rule="evenodd" clip-rule="evenodd" d="M1.873 82.959c6.774-8.806 13.468-13.103 20.083-13.103 6.616 0 13.31 4.293 20.084 13.103 6.828 8.875 13.738 13.42 20.729 13.42s13.9-4.545 20.729-13.42c6.774-8.806 13.468-13.103 20.083-13.103 6.616 0 13.309 4.293 20.084 13.103 6.828 8.875 13.738 13.42 20.729 13.42s13.901-4.545 20.729-13.42c6.774-8.806 13.468-13.103 20.083-13.103 6.616 0 13.309 4.293 20.084 13.103 6.828 8.875 13.738 13.42 20.729 13.42s13.901-4.545 20.729-13.42c6.774-8.81 13.468-13.103 20.083-13.103 6.616 0 13.309 4.293 20.08 13.103 6.832 8.875 13.742 13.42 20.733 13.42s13.876-4.545 20.729-13.42c6.774-8.81 13.468-13.103 20.083-13.103 6.616 0 13.309 4.293 20.08 13.103 6.832 8.875 13.742 13.42 20.733 13.42s13.876-4.545 20.729-13.42c6.774-8.81 13.468-13.103 20.083-13.103 6.616 0 13.309 4.293 20.08 13.103 6.832 8.875 13.742 13.42 20.733 13.42s13.897-4.545 20.729-13.42c6.774-8.81 13.468-13.103 20.083-13.103 6.616 0 13.309 4.293 20.08 13.103 6.832 8.875 13.742 13.42 20.733 13.42s13.876-4.545 20.729-13.42c6.774-8.81 13.468-13.103 20.083-13.103 6.616 0 13.309 4.293 20.08 13.103 6.832 8.875 13.742 13.42 20.733 13.42s13.897-4.545 20.729-13.42V1h-653V82.96z" fill="#fff"/><path d="m605.089 83.33-.396.305.396-.305zm-40.806 0-.396-.305.396.305zm-81.612 0-.396-.305.396.305zm-81.611 0-.397-.305.397.305zM1.873 82.959h-.5v1.47l.896-1.165-.396-.305zm40.167 0-.396.304.396-.304zm41.458 0-.397-.305.397.305zm40.167 0-.396.304.396-.304zm41.458 0-.397-.305.397.305zm40.167 0-.396.304.396-.304zm41.458 0 .396.305-.396-.305zm40.163 0-.396.304.396-.304zm41.462 0 .395.305h.001l-.396-.305zm40.163 0-.396.304.396-.304zm41.462 0 .395.305h.001l-.396-.305zm40.163 0-.396.304.396-.304zm41.462 0 .396.305-.396-.305zm40.163 0-.396.304.396-.304zm41.462 0 .395.305h.001l-.396-.305zm40.163 0-.396.304.396-.304zm41.462 0 .396.305.104-.135v-.17h-.5zm0-81.959h.5V.5h-.5V1zm-653 0V.5h-.5V1h.5zm643.626 82.025c-6.767 8.796-13.438 13.067-20.007 13.067-6.568 0-13.24-4.27-20.006-13.067l-.793.61c6.835 8.886 13.766 13.457 20.799 13.457 7.034 0 13.964-4.571 20.8-13.457l-.793-.61zm-40.013 0c-6.836-8.886-13.766-13.457-20.8-13.457-7.033 0-13.964 4.57-20.799 13.457l.793.61c6.766-8.797 13.438-13.067 20.006-13.067 6.569 0 13.24 4.27 20.007 13.067l.793-.61zm-41.599 0c-6.767 8.796-13.438 13.067-20.007 13.067-6.568 0-13.24-4.27-20.006-13.067l-.793.61c6.835 8.886 13.766 13.457 20.799 13.457 7.034 0 13.964-4.571 20.8-13.457l-.793-.61zm-40.013 0c-6.836-8.886-13.766-13.457-20.8-13.457-7.033 0-13.963 4.57-20.799 13.457l.793.61c6.766-8.797 13.438-13.067 20.006-13.067 6.569 0 13.241 4.27 20.007 13.067l.793-.61zm-41.599 0c-6.766 8.796-13.438 13.067-20.007 13.067-6.568 0-13.24-4.27-20.006-13.067l-.793.61c6.836 8.886 13.766 13.457 20.799 13.457 7.034 0 13.964-4.571 20.8-13.457l-.793-.61zm-40.013 0c-6.836-8.886-13.766-13.457-20.8-13.457-7.033 0-13.963 4.571-20.799 13.457l.793.61c6.766-8.797 13.438-13.067 20.006-13.067 6.569 0 13.241 4.27 20.007 13.067l.793-.61zm-41.599 0c-6.766 8.796-13.438 13.067-20.006 13.067-6.569 0-13.241-4.27-20.007-13.067l-.793.61c6.836 8.886 13.766 13.457 20.8 13.457 7.033 0 13.963-4.571 20.799-13.457l-.793-.61zm-40.013 0c-6.836-8.886-13.766-13.457-20.799-13.457-7.034 0-13.964 4.571-20.8 13.457l.793.61c6.766-8.797 13.438-13.067 20.007-13.067 6.568 0 13.24 4.27 20.006 13.067l.793-.61zm-41.599 0c-6.766 8.796-13.438 13.067-20.006 13.067-6.569 0-13.24-4.27-20.007-13.067l-.793.61c6.836 8.886 13.766 13.457 20.8 13.457 7.033 0 13.963-4.571 20.799-13.457l-.793-.61zm-40.013 0c-6.835-8.886-13.766-13.457-20.799-13.457-7.034 0-13.964 4.571-20.8 13.457l.793.61c6.767-8.797 13.438-13.067 20.007-13.067 6.568 0 13.24 4.27 20.006 13.067l.793-.61zm-41.599 0c-6.766 8.796-13.438 13.067-20.006 13.067-6.569 0-13.24-4.27-20.007-13.067l-.793.61c6.836 8.886 13.766 13.457 20.8 13.457 7.033 0 13.964-4.571 20.799-13.457l-.793-.61zm-40.013 0c-6.835-8.886-13.766-13.457-20.799-13.457-7.034 0-13.964 4.571-20.8 13.457l.793.61c6.767-8.797 13.438-13.067 20.007-13.067 6.568 0 13.24 4.27 20.006 13.067l.793-.61zm-41.599 0c-6.766 8.797-13.438 13.067-20.006 13.067-6.569 0-13.24-4.27-20.007-13.067l-.793.61c6.836 8.886 13.766 13.457 20.8 13.457 7.033 0 13.964-4.571 20.799-13.457l-.793-.61zm-40.013 0c-6.835-8.886-13.765-13.457-20.8-13.457-7.033 0-13.963 4.571-20.798 13.457l.792.61c6.767-8.797 13.439-13.067 20.007-13.067 6.568 0 13.24 4.27 20.006 13.067l.793-.61zm-41.598 0c-6.767 8.797-13.439 13.067-20.007 13.067-6.568 0-13.24-4.27-20.007-13.067l-.792.61c6.835 8.886 13.765 13.457 20.799 13.457 7.034 0 13.964-4.571 20.8-13.457l-.793-.61zm-40.014 0c-6.835-8.886-13.765-13.457-20.799-13.457-7.034 0-13.964 4.571-20.8 13.457l.793.61C.163 74.838 6.835 70.568 13.403 70.568c6.568 0 13.24 4.27 20.007 13.067l.792-.61zm-31.933.239c6.74-8.761 13.304-12.908 19.687-12.908v-1c-6.848 0-13.67 4.447-20.48 13.298l.793.61zm19.687-12.908c6.384 0 12.948 4.143 19.688 12.907l.793-.61c-6.81-8.854-13.632-13.297-20.48-13.297v1zm19.688 12.908c6.862 8.92 13.901 13.616 21.125 13.616v-1c-6.759 0-13.539-4.396-20.332-13.226l-.793.61zM62.769 96.88c7.224 0 14.262-4.696 21.125-13.616l-.793-.61C76.308 91.484 69.527 95.88 62.77 95.88v1zm21.125-13.616c6.74-8.761 13.304-12.908 19.687-12.908v-1c-6.848 0-13.67 4.447-20.48 13.298l.793.61zm19.687-12.908c6.384 0 12.948 4.143 19.688 12.907l.793-.61c-6.81-8.854-13.632-13.297-20.481-13.297v1zm19.688 12.908c6.862 8.92 13.901 13.616 21.125 13.616v-1c-6.759 0-13.539-4.396-20.332-13.226l-.793.61zm21.125 13.616c7.224 0 14.262-4.696 21.125-13.616l-.793-.61c-6.793 8.83-13.574 13.226-20.332 13.226v1zm21.125-13.616c6.74-8.761 13.304-12.908 19.687-12.908v-1c-6.848 0-13.67 4.447-20.48 13.298l.793.61zm19.687-12.908c6.384 0 12.948 4.143 19.688 12.907l.793-.61c-6.81-8.854-13.632-13.297-20.481-13.297v1zm19.688 12.908c6.862 8.92 13.901 13.616 21.125 13.616v-1c-6.759 0-13.539-4.396-20.332-13.226l-.793.61zm21.125 13.616c7.224 0 14.263-4.696 21.125-13.616l-.793-.61c-6.793 8.83-13.574 13.226-20.332 13.226v1zm21.125-13.617c6.74-8.764 13.304-12.907 19.687-12.907v-1c-6.848 0-13.67 4.443-20.48 13.298l.793.61zm19.687-12.907c6.384 0 12.948 4.143 19.684 12.907l.793-.609c-6.806-8.855-13.628-13.298-20.477-13.298v1zm19.684 12.908c6.866 8.92 13.905 13.616 21.129 13.616v-1c-6.759 0-13.539-4.396-20.337-13.226l-.792.61zm21.129 13.616c7.224 0 14.238-4.697 21.124-13.616l-.791-.61c-6.819 8.83-13.575 13.226-20.333 13.226v1zm21.125-13.617c6.74-8.764 13.304-12.907 19.687-12.907v-1c-6.848 0-13.67 4.443-20.48 13.298l.793.61zm19.687-12.907c6.384 0 12.948 4.143 19.684 12.907l.793-.609c-6.806-8.855-13.628-13.298-20.477-13.298v1zm19.684 12.908c6.866 8.92 13.905 13.616 21.129 13.616v-1c-6.759 0-13.539-4.396-20.337-13.226l-.792.61zm21.129 13.616c7.224 0 14.238-4.697 21.124-13.616l-.791-.61c-6.819 8.83-13.575 13.226-20.333 13.226v1zm21.125-13.617c6.74-8.764 13.304-12.907 19.687-12.907v-1c-6.848 0-13.67 4.443-20.48 13.298l.793.61zm19.687-12.907c6.384 0 12.948 4.143 19.684 12.907l.793-.609c-6.806-8.855-13.628-13.298-20.477-13.298v1zm19.684 12.908c6.866 8.92 13.905 13.616 21.129 13.616v-1c-6.759 0-13.539-4.396-20.337-13.226l-.792.61zm21.129 13.616c7.224 0 14.258-4.697 21.125-13.616l-.793-.61c-6.797 8.83-13.574 13.226-20.332 13.226v1zm21.125-13.617c6.74-8.764 13.304-12.907 19.687-12.907v-1c-6.848 0-13.67 4.443-20.48 13.298l.793.61zm19.687-12.907c6.384 0 12.948 4.143 19.684 12.907l.793-.609c-6.806-8.855-13.628-13.298-20.477-13.298v1zm19.684 12.908c6.866 8.92 13.905 13.616 21.129 13.616v-1c-6.759 0-13.539-4.396-20.337-13.226l-.792.61zm21.129 13.616c7.224 0 14.238-4.697 21.124-13.616l-.791-.61c-6.819 8.83-13.575 13.226-20.333 13.226v1zm21.125-13.617c6.74-8.764 13.304-12.907 19.687-12.907v-1c-6.848 0-13.67 4.443-20.48 13.298l.793.61zm19.687-12.907c6.384 0 12.948 4.143 19.684 12.907l.793-.609c-6.806-8.855-13.628-13.298-20.477-13.298v1zm19.684 12.908c6.866 8.92 13.905 13.616 21.129 13.616v-1c-6.759 0-13.539-4.396-20.337-13.226l-.792.61zm21.129 13.616c7.224 0 14.258-4.697 21.125-13.616l-.793-.61c-6.797 8.83-13.574 13.226-20.332 13.226v1zm21.229-13.921V1h-1v81.959h1zM654.873.5h-653v1h653v-1zM1.373 1V82.96h1V1h-1z" fill="#fff"/></svg>
